!!!COM:	Bach, Johann Sebastian
!!!CDT:	1685/02/21/-1750/07/28/
!!!OTL@@DE:	O Gott, du frommer Gott
!!!SCT:	BWV 24/6
!!!PC#:	337
!!!AGN:	chorale
**kern	**kern	**kern	**kern
*ICvox	*ICvox	*ICvox	*ICvox
*Ibass	*Itenor	*Ialto	*Isoprn
*I"Bass	*I"Tenor	*I"Alto	*I"Soprano
*clefF4	*clefGv2	*clefG2	*clefG2
*k[b-]	*k[b-]	*k[b-]	*k[b-]
*F:	*F:	*F:	*F:
*M4/4	*M4/4	*M4/4	*M4/4
*met(c)	*met(c)	*met(c)	*met(c)
*MM100	*MM100	*MM100	*MM100
4AA	4c#	8eL	4a
.	.	16fL	.
.	.	16gJJ	.
=1	=1	=1	=1
8DL	4d	4f	4a
8CnXJ	.	.	.
4BB-	8dL	4f	8b-L
.	8B-J	.	16ccL
.	.	.	16ddJJ
4C	8AL	8fL	4cc
.	16GL	16eL	.
.	16FJJ	16dJJ	.
4C	4G	4e	16b-LL
.	.	.	16aJ
.	.	.	8b-J
=2	=2	=2	=2
4FF;	4c;	4f;	4a;
4F	8cL	4f	8aL
.	8dJ	.	8b-J
4E	4e	8gL	4cc
.	.	8eJ	.
4D	8AL	4f	4f
.	8FJ	.	.
=3	=3	=3	=3
8CL	4c	4e	4g
8BB-J	.	.	.
8AAL	4c	4f	4a
8FFJ	.	.	.
8BB-L	4B-	4d	2g
8GGJ	.	.	.
8CL	4G	4e	.
8CCJ	.	.	.
=4	=4	=4	=4
4FF;	4A;	4c;	4f;
8FL	4c	4f	4a
8EJ	.	.	.
8DL	4d	4f	4a
8CJ	.	.	.
8BB-L	8dL	8fL	8b-L
8GGJ	[8B-J	8gJ	16ccL
.	.	.	16ddJJ
=5	=5	=5	=5
4C	8B-L]	8e	4cc
.	8AJ	4f	.
4C	8GL	.	4b-
.	8cJ	8e	.
4FF;	4c;	4f;	4a;
4D	8FL	4f	8aL
.	8GJ	.	8b-J
=6	=6	=6	=6
4AA	8AL	8fL	4cc
.	8GJ	8e-J	.
4BB-	4F	4d	4f
8B-L	4c	4e	4g
8AJ	.	.	.
8GL	4c	4f	8.aL
8FJ	.	.	.
.	.	.	16b-Jk
=7	=7	=7	=7
4C	8cL	4f	2g
.	16B-L	.	.
.	16AJJ	.	.
4C	8B-L	4e	.
.	8GJ	.	.
4F;	4A;	4c;	4f;
8BBL	8dL	4d	4g
8GGJ	8BnXJ	.	.
=8	=8	=8	=8
4C	4c	4e	4g
8BB-XL	4c	[4f	4a
8AAJ	.	.	.
4GG	8dL	8fL]	4b-
.	16cL	16eL	.
.	16B-JJ	16dJJ	.
4C	4c	4e	8.b-L
.	.	.	16ccJk
=9	=9	=9	=9
4F;	4c;	4f;	4a;
4F#	4c	4e-	4a
4F	4B	4d	4g
8E-L	4c	4g	8ccL
16FL	.	.	16ddL
16GJJ	.	.	16ee-XJJ
=10	=10	=10	=10
8A-L	8cL	8fL	4dd
16GL	8fJ	8a-J	.
16FJJ	.	.	.
8GL	4d	8gL	8ccL
8GGJ	.	8fJ	8bJ
4C;	4c;	4enX;	4cc;
8cL	4enX	4g	4cc
8B-XJ	.	.	.
=11	=11	=11	=11
8AL	4c	4f	8ccL
8GJ	.	.	8b-J
8FL	4c	4f	4a
8E-J	.	.	.
8DL	4d	4f	4b-
8CJ	.	.	.
8BB-L	4c	4f	8ccL
8AAJ	.	.	16ddL
.	.	.	16ee-JJ
=12	=12	=12	=12
4BB-;	4B-;	4f;	4dd;
4C	4B-	4enX	4g
8FL	4A	4c	4a
8EnXJ	.	.	.
8DL	4d	[4f	4a
8CJ	.	.	.
=13	=13	=13	=13
8BB-L	8dL	4f]	4g
8BBJ	8GJ	.	.
4C	8AL	4e	4g
.	8B-J	.	.
4F;	4A;	4c;	4f;
==	==	==	==
*-	*-	*-	*-
!!!hum2abc: -Q ''
!!!title: @{PC#}. @{OTL@@DE}
!!!YOR1: 371 vierstimmige Choralges&auml;nge von Johann Sebastian Bach, 
!!!YOR2: 4th ed. by Alfred D&ouml;rffel (Leipzig: Breitkopf und H&auml;rtel, 
!!!YOR2: c.1875). 178 pp. Plate "V.A.10".  reprint: J.S. Bach, 371 Four-Part 
!!!YOR4: Chorales (New York: Associated Music Publishers, Inc., c.1940).
!!!SMS: B&H, 4th ed, Alfred D&ouml;rffel, c.1875, plate V.A.10
!!!EED:  Craig Stuart Sapp
!!!EEV:  2009/05/22
